X:12
T:fandango
C:appris de Patxi, Pantxo et Bruno ? Gennetines, fichier abc : Bernard Loffet
L:1/8
M:3/4
Z:Created with TablEdit http://www.tabledit.com/ by Bernard Loffet
Z:modified by Dave Holland
K:C
|: "C"C2 EG EG | ez ed c2 | C2 ce ce | "G"dz dc B2 |\
G2 df df | "C"ez ce ce | "G"dz Bd Bd | "C"cz cd e2 |
"C"C2 EG EG | ez ed c2 | C2 ce ce | "G"dz dc B2 |\
G2 df df | "C"ez ce ce | "G"dz Bd Bd | "C"c2 C2 C2 :|
|: "C"C2 Ez "G7"Fz | "C"Gz "G"^Fz "C"Gz | ez dz cz | "G"B2 G2 G2 |\
G2 Dz Ez | "F"Fz Ez Fz | "G"Az "C"Gz "G"Fz | "C"E2 C2 C2 |
"C"C2 Ez "G"Fz | "C"Gz "G"^Fz "C"Gz | cz Bz _Bz | "F"A2 F2 F2 |\
F2 gz fz | "C"ez cz ez | "G"dz Bd Bd | "C"c2 C2 C2 :|
<end>
<start>
